app/static/assets/svg/balance_scale.svg

<path d="M96.61 53.37L80.43 27.6c-.45-.73-1.19-1.03-1.93-1.03s-1.48.3-1.93 1.03L60.39 53.37c-.59.88-.89 1.91-.89 2.93 0 10.36 8.51 18.75 19 18.75s19-8.39 19-18.75c0-1.02-.3-2.05-.89-2.93zM78.5 68.75c-6.23 0-11.58-3.95-13.51-9.37h26.87c-2.04 5.56-7.36 9.3-13.36 9.37zM65.14 54.69L78.5 33.31l13.51 21.38H65.14zm16.92 28.12H52.38V30.97c4.15-1.03 7.12-4.69 7.12-9.08h22.56c.6 0 1.19-.59 1.19-1.18v-2.34c0-.58-.59-1.17-1.19-1.17h-23.9s-.59-1.61-2.82-3.08a9.611 9.611 0 0 0-10.68 0c-2.23 1.47-2.82 3.08-2.82 3.08h-23.9c-.6 0-1.19.59-1.19 1.17v2.34c0 .59.59 1.18 1.19 1.18H40.5c0 4.39 2.97 8.05 7.13 9.08v51.84H17.94c-.6 0-1.19.59-1.19 1.17v2.35c0 .58.59 1.17 1.19 1.17h64.12c.6 0 1.19-.59 1.19-1.17v-2.35c0-.58-.59-1.17-1.19-1.17zM45.25 21.89c0-2.59 2.13-4.69 4.75-4.69s4.75 2.1 4.75 4.69c0 2.58-2.13 4.68-4.75 4.68s-4.75-2.1-4.75-4.68zM40.5 56.3c0-1.02-.3-2.05-.89-2.93L23.43 27.6c-.45-.73-1.19-1.03-1.93-1.03s-1.48.3-1.93 1.03L3.39 53.37c-.59.88-.89 1.91-.89 2.93 0 10.36 8.51 18.75 19 18.75s19-8.39 19-18.75zm-19-22.99l13.51 21.38H8.14L21.5 33.31zM7.99 59.38h26.87c-2.04 5.56-7.36 9.3-13.36 9.37-6.23 0-11.58-3.95-13.51-9.37z"/>

<path d=" M 96.61 53.37 L 80.43 27.6 C 79.98 26.87 79.24 26.57 78.5 26.57 C 77.76 26.57 77.02 26.87 76.57 27.6 L 60.39 53.37 C 59.8 54.25 59.5 55.28 59.5 56.3 C 59.5 66.66 68.01 75.05 78.5 75.05 C 88.99 75.05 97.5 66.66 97.5 56.3 C 97.5 55.28 97.2 54.25 96.61 53.37 Z  M 78.5 68.75 C 72.27 68.75 66.92 64.8 64.99 59.38 L 91.86 59.38 C 89.82 64.94 84.5 68.68 78.5 68.75 Z  M 65.14 54.69 L 78.5 33.31 L 92.01 54.69 L 65.14 54.69 Z  M 82.06 82.81 L 52.38 82.81 L 52.38 30.97 C 56.53 29.94 59.5 26.28 59.5 21.89 L 82.06 21.89 C 82.66 21.89 83.25 21.3 83.25 20.71 L 83.25 18.37 C 83.25 17.79 82.66 17.2 82.06 17.2 L 58.16 17.2 C 58.16 17.2 57.57 15.59 55.34 14.12 C 52.12 11.96 47.88 11.96 44.66 14.12 C 42.43 15.59 41.84 17.2 41.84 17.2 L 17.94 17.2 C 17.34 17.2 16.75 17.79 16.75 18.37 L 16.75 20.71 C 16.75 21.3 17.34 21.89 17.94 21.89 L 40.5 21.89 C 40.5 26.28 43.47 29.94 47.63 30.97 L 47.63 82.81 L 17.94 82.81 C 17.34 82.81 16.75 83.4 16.75 83.98 L 16.75 86.33 C 16.75 86.91 17.34 87.5 17.94 87.5 L 82.06 87.5 C 82.66 87.5 83.25 86.91 83.25 86.33 L 83.25 83.98 C 83.25 83.4 82.66 82.81 82.06 82.81 Z  M 45.25 21.89 C 45.25 19.3 47.38 17.2 50 17.2 C 52.62 17.2 54.75 19.3 54.75 21.89 C 54.75 24.47 52.62 26.57 50 26.57 C 47.38 26.57 45.25 24.47 45.25 21.89 Z  M 40.5 56.3 C 40.5 55.28 40.2 54.25 39.61 53.37 L 23.43 27.6 C 22.98 26.87 22.24 26.57 21.5 26.57 C 20.76 26.57 20.02 26.87 19.57 27.6 L 3.39 53.37 C 2.8 54.25 2.5 55.28 2.5 56.3 C 2.5 66.66 11.01 75.05 21.5 75.05 C 31.99 75.05 40.5 66.66 40.5 56.3 Z  M 21.5 33.31 L 35.01 54.69 L 8.14 54.69 L 21.5 33.31 Z  M 7.99 59.38 L 34.86 59.38 C 32.82 64.94 27.5 68.68 21.5 68.75 C 15.27 68.75 9.92 64.8 7.99 59.38 Z "/>
